assets/img/icons/duotone-icons/Cooking/Ladle.svg

<?xml version="1.0" encoding="UTF-8"?>
<svg width="24px" height="24px" viewBox="0 0 24 24" version="1.1" xmlns="http://www.w3.org/2000/svg" xmlns:xlink="http://www.w3.org/1999/xlink">
    <!-- Generator: Sketch 52.2 (67145) - http://www.bohemiancoding.com/sketch -->
    <title>Stockholm-icons / Cooking / Ladle</title>
    <desc>Created with Sketch.</desc>
    <g id="Stockholm-icons-/-Cooking-/-Ladle" stroke="none" stroke-width="1" fill="none" fill-rule="evenodd">
        <rect id="bound" x="0" y="0" width="24" height="24"></rect>
        <path d="M23.3743687,7.6109127 C23.764893,8.001437 23.764893,8.63460197 23.3743687,9.02512627 L17.0104076,15.3890873 C16.6198833,15.7796116 15.9867184,15.7796116 15.5961941,15.3890873 L14.1819805,13.9748737 C13.7914562,13.5843494 13.7914562,12.9511845 14.1819805,12.5606602 L20.5459415,6.19669914 C20.9364658,5.80617485 21.5696308,5.80617485 21.9601551,6.19669914 L23.3743687,7.6109127 Z" id="Rectangle-84" fill="#335EEA" opacity="0.3"></path>
        <path d="M9.23223305,18.9246212 L12.767767,15.3890873 L14.1819805,16.8033009 L10.6464466,20.3388348 L10.6277096,20.3200977 C8.43440982,22.0911922 4.91227837,21.6757343 2.51471863,19.2781746 C0.117158879,16.8806148 0.0171078758,13.6738902 1.82320411,11.5155923 L9.23223305,18.9246212 Z" id="Combined-Shape" fill="#335EEA"></path>
    </g>
</svg>

<svg width="24" height="24" viewBox="0 0 24 24" xmlns="http://www.w3.org/2000/svg"><g fill="none" fill-rule="evenodd"><path d="M0 0h24v24H0z"/><path d="M23.374 7.61a1 1 0 010 1.415L17.01 15.39a1 1 0 01-1.414 0l-1.414-1.414a1 1 0 010-1.414l6.364-6.364a1 1 0 011.414 0l1.414 1.414z" fill="#335EEA" opacity=".3"/><path d="M9.232 18.925l3.536-3.536 1.414 1.414-3.536 3.536-.018-.019c-2.194 1.771-5.716 1.356-8.113-1.042-2.398-2.397-2.498-5.604-.692-7.762l7.41 7.409z" fill="#335EEA"/></g></svg>
